assets/icons/qvision/collections_bookmark.svg

<svg xmlns="http://www.w3.org/2000/svg" height="24" viewBox="0 0 24 24" width="24"><path d="M0 0h24v24H0V0z" fill="none"/><path d="M0 0h24v24H0V0z" fill="none"/><path d="M4 6H2v14c0 1.1.9 2 2 2h14v-2H4V6z"/><path d="M20 2H8c-1.1 0-2 .9-2 2v12c0 1.1.9 2 2 2h12c1.1 0 2-.9 2-2V4c0-1.1-.9-2-2-2zm0 10l-2.5-1.5L15 12V4h5v8z"/></svg>

<svg width="24" height="24" viewBox="0 0 24 24" fill="none" xmlns="http://www.w3.org/2000/svg">
<g clip-path="url(#clip0_147_3304)">
<path d="M4 6H2V20C2 21.1 2.9 22 4 22H18V20H4V6Z" fill="#323232"/>
<path d="M20 2H8C6.9 2 6 2.9 6 4V16C6 17.1 6.9 18 8 18H20C21.1 18 22 17.1 22 16V4C22 2.9 21.1 2 20 2ZM20 12L17.5 10.5L15 12V4H20V12Z" fill="#323232"/>
</g>
<defs>
<clipPath id="clip0_147_3304">
<rect width="24" height="24" fill="white"/>
</clipPath>
</defs>
</svg>
